X:344010
T:High Road to Linton
C:Various printed collections p1,2 (1796/1798) / Bobby MacLeod (p3,4 1957)
B: Scots Guard
H:
O:Kevin Fraser
Z:Kevin Fraser
Q:1/4=90
K:HP
M:C/
L:1/8
R:Reel
U: R = ///
U: r = //
U: V = !accent!
V:M gstem=up stem=down name="Melody" sname="Melody" 
V:H gstem=up stem=down name="Harmony" sname="Harmony"
V:C gstem=up stem=down name="C-Harmony" sname="C-Harmony"
V:S gstem=up stem=down dyn=up stafflines=1 clef=perc middle=G name="Snare" sname="Snare" sname="Snare"
V:B gstem=up stem=down clef=none dyn=up name="Bass" sname="Bass"
V:T gstem=up stem=down clef=none dyn=up name="Tenor" sname="Tenor"
I:MIDI=program 110
%%MIDI gracedivider 4
I:linebreak $
% %score {M H}
%%MIDI program 109 #bagpipes
%%MIDI vol 100
[V:M]|:         "A"{g}c<e{A}e>f {ag}(a2a)>e   | "D"{gf}g2 f<e "A"{ag}a2 c{e}<A    | {g}c<e{A}e>f {ag}(a2a)>e   | "D"{g}f<a{ef}e>c "E"{gBd}B2 "A"{G}A2 :| $
[V:M]|:         "A"{g}c<e{A}e>g "D"{a}f>d{G}d>f | "A"{gef}e>c{G}c>e "E7"{g}f>B{G}B>d | "A"{g}c<e{A}e>g "D"{a}f>d{G}d>f | "A"{gef}e>ca>c   "E"{gBd}B2 "A"{G}A2 :| $
[V:M]|:         "A"a2 {g}a2     e>f{ag}a2    | e>f{ag}a>e     {g}f>B{G}B>e | a2 {g}a2     e>f{ag}a>e   | "D"{g}f<a{ef}e>c "E"{gBd}B2 "A"{G}A2 :| $
[V:M]|:         "A"{g}c>d{g}e>c "D"{g}d>e{g}f>d | "A"{g}c>d{g}e>c "D"{g}B>c{g}d>B | "A"{g}c>d{g}e>c "D"{g}d>e{G}f>d  | "D"{g}f<a{ef}e>c "E"{gBd}B2 "A"{G}A2 :| $
T:Drums
[V:S]|:         {A}c2 (RA2Vc2) (RA2          | Vc)>Ac>c   A>cA>A     | {A}c2 (RA2Vc2) (RA2          | Vc)>Ac>c (Rc2 VA2) :| $
[V:S][|         {AA}c2 {AA}c2 {A}c>A {A}c2 | {A}c>VAc>c (3:cAc {c}A2 | {AA}c2 {AA}c2 {A}c>A {A}c2  | {A}c>VAc>c (Rc2 VA2) | $
[V:S]              V(3:cAc(3:AcA c2 {c}A2   | V(3:cAc(3:AcA c>A {A}c2 | V(3:cAc(3:AcA Vc2 {c}A2   | {A}c>VAc>c (Rc2 VA2) |] $
[V:B]|:         c2 A2 c2 A2 | c2 A2 c>A c2 | c2 A2 c2 A2 | c2 A2 c>A c2 :| $
[V:B][|         c2 A2 c2 A2 | c2 A2 c>A c2 | c2 A2 c2 A2 | c2 A2 c>A c2 | $
[V:B]         	 c2 A2 c2 A2 | c2 A2 c>A c2 | c2 A2 c2 A2 | c2 A2 c>A c2 |] $ 
[V:T]|:         c2 A2 c>A c2 | (3:2cAc(3:2AcA c>A c2 | c2 A2 c>A c2 | (3:2cAc(3:2AcA c2 A2 :| $
[V:T][|         c2 A2 c>A c2 | (3:2cAc(3:2AcA c>A c2 | c2 A2 c>A c2 | (3:2cAc(3:2AcA c2 A2 | $
[V:T] 	       c2 A2 c>A c2 | (3:2cAc(3:2AcA c>A c2 | c2 A2 c>A c2 | (3:2cAc(3:2AcA c2 A2 |] $

